X:75
T:Jockeys Delight THO3.075
O:England;London
M:6/8
L:1/8
Z:vmp. Peter Dunk 2011.from a transcription by Fynn Titford-Mock 2006-9
B:Thompson's Compleat Collection of 200 Favourite Country Dances Vol. III.1765-72
Q:3/8=100
K:Bb
B,DF Bcd|cAF TF3|gfe dcB|ABc cAF|DFB BFD|EGc c2 B|ABG FG=E|F3F3:|
|:f3 (f/e/dc)|c3=B3|Gfe dc=B|dGE C3|e3 (e/d/cB)|B3A3|Fed cBA|BFD B,de|
fdB Bdf|ecA Ace|dBG GBd|cAF TF2 E|DFB BFD|EGc cde|dfB ceA|B3B,3:|

